X: 1060
T: The Banks of Lough Gowna
R:double jig
N:"collected by O'Reilly"
B:O'Neill's 1060
Z:Transcribed by henrik.norbeck@mailbox.swipnet.se
M:6/8
L:1/8
K:Am
ABA AGE|EDE G3|ABA AGE|c2d ecA|
ABA AGE|EDE G3|cde ged|cAA A3:|
cde ^g2a|gea ged|cde ^g2a|ge^g a3|
cde ^g2a|gea ged|cde fed|ecA A3:|


